X: 11184
T: The MAZOURKA
%R: mazurka
B: W. Hamilton "Universal Tune-Book" Vol. 1 Glasgow 1844 p.118 #4
S: http://imslp.org/wiki/Hamilton's_Universal_Tune-Book_(Various)
Z: 2016 John Chambers <jc:trillian.mit.edu>
N: Both strains have final repeats but no initial repeats; fixed.
M: 3/8
L: 1/16
K: G
% - - - - - - - - - - - - - - - - - - - - - - - - -
G2 !p!|\
G>A B2B2 | c>B A2G2 | (F>Ac>Ae>d) | B>d g2D2 |\
G>A B2B2 | c>B A2G2 | (F>Ac>Ae>d) | G4 :|
|: (dc) |\
B>c d2d2 | B>c d2d2 | (e>fg>ed>c) | B>(c d4) |\
(c>BA>Bc2) | (B>AG>AB2) | (A>G)(F>GA)>F | G4 :|
% - - - - - - - - - - - - - - - - - - - - - - - - -

%%sep 1 1 500
%%sep 1 1 500

